ExpEYES17/UserManual/fr/rst/exp/schematics/opto-electric.svg

<?xml version="1.0" encoding="UTF-8" standalone="no"?>
<svg
   xmlns:dc="http://purl.org/dc/elements/1.1/"
   xmlns:cc="http://creativecommons.org/ns#"
   xmlns:rdf="http://www.w3.org/1999/02/22-rdf-syntax-ns#"
   xmlns:svg="http://www.w3.org/2000/svg"
   xmlns="http://www.w3.org/2000/svg"
   xmlns:sodipodi="http://sodipodi.sourceforge.net/DTD/sodipodi-0.dtd"
   xmlns:inkscape="http://www.inkscape.org/namespaces/inkscape"
   version="1.1"
   id="opto-electric"
   width="100%"
   height="100%"
   viewBox="-6 -6 742 438"
   sodipodi:docname="opto-electric.svg"
   inkscape:export-filename="/home/georgesk/developpement/expeyes/expeyes/ExpEYES17/UserManual/fr/rst/exp/schematics/opto-electric.png"
   inkscape:export-xdpi="39.024391"
   inkscape:export-ydpi="39.024391"
   inkscape:version="0.92.2 (5c3e80d, 2017-08-06)">
  <metadata
     id="metadata119">
    <rdf:RDF>
      <cc:Work
         rdf:about="">
        <dc:format>image/svg+xml</dc:format>
        <dc:type
           rdf:resource="http://purl.org/dc/dcmitype/StillImage" />
        <dc:title></dc:title>
      </cc:Work>
    </rdf:RDF>
  </metadata>
  <defs
     id="defs117" />
  <sodipodi:namedview
     pagecolor="#ffffff"
     bordercolor="#666666"
     borderopacity="1"
     objecttolerance="10"
     gridtolerance="10"
     guidetolerance="10"
     inkscape:pageopacity="0"
     inkscape:pageshadow="2"
     inkscape:window-width="1668"
     inkscape:window-height="1013"
     id="namedview115"
     showgrid="false"
     inkscape:zoom="1.4474394"
     inkscape:cx="371"
     inkscape:cy="219"
     inkscape:window-x="0"
     inkscape:window-y="0"
     inkscape:window-maximized="1"
     inkscape:current-layer="opto-electric" />
  <desc
     id="desc2">
XCircuit Version 3.7
File &quot;opto-electric.ps&quot; Page 1
</desc>
  <text
     font-size="40"
     id="text6"
     style="font-size:40px;font-family:Helvetica;fill:#000000;stroke:none"
     x="32"
     y="208">
    <tspan
       x="32"
       y="208"
       id="tspan4">SQ1</tspan>
  </text>
  <text
     font-size="40"
     id="text12"
     style="font-size:40px;font-family:Helvetica;fill:#000000;stroke:none"
     x="32"
     y="400">
    <tspan
       x="32"
       y="400"
       id="tspan10">GND</tspan>
  </text>
  <text
     font-size="40"
     id="text18"
     style="font-size:40px;font-family:Helvetica;fill:#000000;stroke:none"
     x="624"
     y="192">
    <tspan
       x="624"
       y="192"
       id="tspan16">SEN</tspan>
  </text>
  <path
     style="fill:#000000;stroke:none"
     inkscape:connector-curvature="0"
     id="path22"
     d="m 258,256 -18,32 -18,-32 z" />
  <path
     style="fill:none;stroke:#000000;stroke-width:2;stroke-linecap:round;stroke-linejoin:bevel"
     inkscape:connector-curvature="0"
     id="path24"
     d="m 240,224 v 32" />
  <path
     style="fill:none;stroke:#000000;stroke-width:2;stroke-linecap:round;stroke-linejoin:bevel"
     inkscape:connector-curvature="0"
     id="path26"
     d="M 240,320 V 288" />
  <path
     style="fill:none;stroke:#000000;stroke-width:2;stroke-linecap:round;stroke-linejoin:bevel"
     inkscape:connector-curvature="0"
     id="path28"
     d="M 258,288 H 222" />
  <path
     style="fill:none;stroke:#000000;stroke-width:2;stroke-linecap:round;stroke-linejoin:bevel"
     inkscape:connector-curvature="0"
     id="path30"
     d="M 448,272 H 432" />
  <path
     style="fill:none;stroke:#000000;stroke-width:2;stroke-linecap:round;stroke-linejoin:bevel"
     inkscape:connector-curvature="0"
     id="path32"
     d="m 448,224 v 96" />
  <path
     style="fill:none;stroke:#000000;stroke-width:2;stroke-linecap:round;stroke-linejoin:bevel"
     inkscape:connector-curvature="0"
     id="path34"
     d="m 496,224 -48,26" />
  <path
     style="fill:none;stroke:#000000;stroke-width:2;stroke-linecap:round;stroke-linejoin:bevel"
     inkscape:connector-curvature="0"
     id="path36"
     d="M 496,224 V 208" />
  <path
     style="fill:none;stroke:#000000;stroke-width:2;stroke-linecap:round;stroke-linejoin:bevel"
     inkscape:connector-curvature="0"
     id="path38"
     d="M 496,320 448,294" />
  <path
     style="fill:none;stroke:#000000;stroke-width:2;stroke-linecap:round;stroke-linejoin:bevel"
     inkscape:connector-curvature="0"
     id="path40"
     d="m 496,320 v 16" />
  <path
     style="fill:#000000;stroke:none"
     inkscape:connector-curvature="0"
     id="path42"
     d="m 468,313 c 11,1 14,2 28,7 -11,-10 -14,-12 -20,-21 -2,6 -4,10 -8,14" />
  <path
     style="fill:none;stroke:#000000;stroke-width:2;stroke-linecap:round;stroke-linejoin:bevel"
     inkscape:connector-curvature="0"
     id="path44"
     d="m 16,160 v 64 h 112 v -64 z" />
  <path
     style="fill:none;stroke:#000000;stroke-width:2;stroke-linecap:round;stroke-linejoin:bevel"
     inkscape:connector-curvature="0"
     id="path46"
     d="m 16,352 v 64 h 112 v -64 z" />
  <path
     style="fill:none;stroke:#000000;stroke-width:2;stroke-linecap:round;stroke-linejoin:bevel"
     inkscape:connector-curvature="0"
     id="path48"
     d="m 608,144 v 64 h 112 v -64 z" />
  <path
     style="fill:#000000;stroke:none"
     inkscape:connector-curvature="0"
     id="path50"
     d="m 276,264 c 10,-5 13,-5 28,-8 -15,-3 -18,-3 -28,-8 2,6 2,10 0,16" />
  <text
     font-size="40"
     id="text54"
     style="font-size:40px;font-family:Helvetica;fill:#000000;stroke:none"
     x="128"
     y="288">
    <tspan
       x="128"
       y="288"
       id="tspan52">DEL</tspan>
  </text>
  <circle
     style="fill:none;stroke:#000000;stroke-width:2;stroke-linecap:round;stroke-linejoin:bevel"
     r="16"
     id="ellipse58"
     cy="208"
     cx="240" />
  <circle
     style="fill:none;stroke:#000000;stroke-width:2;stroke-linecap:round;stroke-linejoin:bevel"
     r="16"
     id="ellipse60"
     cy="336"
     cx="240" />
  <path
     style="fill:none;stroke:#000000;stroke-width:2;stroke-linecap:round;stroke-linejoin:bevel"
     inkscape:connector-curvature="0"
     id="path62"
     d="m 128,384 c 16,0 96,-32 112,-32" />
  <circle
     style="fill:none;stroke:#000000;stroke-width:2;stroke-linecap:round;stroke-linejoin:bevel"
     r="16"
     id="ellipse64"
     cy="192"
     cx="496" />
  <circle
     style="fill:none;stroke:#000000;stroke-width:2;stroke-linecap:round;stroke-linejoin:bevel"
     r="16"
     id="ellipse66"
     cy="352"
     cx="496" />
  <text
     font-size="40"
     id="text70"
     style="font-size:40px;font-family:Helvetica;fill:#000000;stroke:none"
     x="528"
     y="272">
    <tspan
       x="528"
       y="272"
       id="tspan68">Photo</tspan>
  </text>
  <text
     font-size="40"
     id="text76"
     style="font-size:40px;font-family:Helvetica;fill:#000000;stroke:none"
     x="528"
     y="304">
    <tspan
       x="528"
       y="304"
       id="tspan74">transistor</tspan>
  </text>
  <path
     style="fill:none;stroke:#000000;stroke-width:2;stroke-linecap:round;stroke-linejoin:bevel"
     inkscape:connector-curvature="0"
     id="path80"
     d="m 496,368 c 16,0 -240,96 -368,16" />
  <path
     style="fill:#000000;stroke:none"
     inkscape:connector-curvature="0"
     id="path82"
     d="m 276,296 c 10,-5 13,-5 28,-8 -15,-3 -18,-3 -28,-8 2,6 2,10 0,16" />
  <path
     style="fill:#000000;stroke:none"
     inkscape:connector-curvature="0"
     id="path84"
     d="m 276,280 c 10,-5 13,-5 28,-8 -15,-3 -18,-3 -28,-8 2,6 2,10 0,16" />
  <path
     style="fill:none;stroke:#000000;stroke-width:2;stroke-linecap:round;stroke-linejoin:bevel"
     inkscape:connector-curvature="0"
     id="path86"
     d="M 0,432 V 0 h 736 v 432 z" />
  <text
     font-size="40"
     id="text90"
     style="font-size:40px;font-family:Helvetica;fill:#000000;stroke:none"
     x="48"
     y="96">
    <tspan
       x="48"
       y="96"
       id="tspan88">A1</tspan>
  </text>
  <text
     font-size="40"
     id="text96"
     style="font-size:40px;font-family:Helvetica;fill:#000000;stroke:none"
     x="624"
     y="80">
    <tspan
       x="624"
       y="80"
       id="tspan94">A2</tspan>
  </text>
  <path
     style="fill:none;stroke:#000000;stroke-width:2;stroke-linecap:round;stroke-linejoin:bevel"
     inkscape:connector-curvature="0"
     id="path100"
     d="M 608,32 V 96 H 720 V 32 Z" />
  <path
     style="fill:none;stroke:#000000;stroke-width:2;stroke-linecap:round;stroke-linejoin:bevel"
     inkscape:connector-curvature="0"
     id="path102"
     d="m 16,48 v 64 H 128 V 48 Z" />
  <path
     style="fill:none;stroke:#000000;stroke-width:2;stroke-linecap:round;stroke-linejoin:bevel"
     inkscape:connector-curvature="0"
     id="path104"
     d="m 512,192 c 0,0 80,-48 96,-16" />
  <path
     style="fill:none;stroke:#000000;stroke-width:2;stroke-linecap:round;stroke-linejoin:bevel"
     inkscape:connector-curvature="0"
     id="path106"
     d="m 496,176 c 1,0 0,-96 112,-112" />
  <path
     style="fill:none;stroke:#000000;stroke-width:2;stroke-linecap:round;stroke-linejoin:bevel"
     inkscape:connector-curvature="0"
     id="path108"
     d="m 128,192 c 1,0 96,-16 96,16" />
  <path
     style="fill:none;stroke:#000000;stroke-width:2;stroke-linecap:round;stroke-linejoin:bevel"
     inkscape:connector-curvature="0"
     id="path110"
     d="M 240,192 C 241,192 224,96 128,80" />
</svg>

<svg xmlns="http://www.w3.org/2000/svg"
   xmlns:xlink="http://www.w3.org/1999/xlink"
   version="1.1"
   id="opto-electric" width="100%" height="100%"  viewBox="-6 -6 742 438">
<desc>
XCircuit Version 3.7
File "opto-electric.ps" Page 1
</desc>
<g stroke="black">
<g transform="matrix(   1    0   -0    1  32 208)" fill="#000000" >
<text stroke="none" font-family="Helvetica" font-size="40" ><tspan x="0" y="0">SQ1</tspan>
</text></g>
<g transform="matrix(   1    0   -0    1  32 400)" fill="#000000" >
<text stroke="none" font-family="Helvetica" font-size="40" ><tspan x="0" y="0">GND</tspan>
</text></g>
<g transform="matrix(   1    0   -0    1 624 192)" fill="#000000" >
<text stroke="none" font-family="Helvetica" font-size="40" ><tspan x="0" y="0">SEN</tspan>
</text></g>
<path d="M258,256 L240,288 222,256 z" fill="#000000" stroke="none" />
<path d="M240,224 L240,256 " fill="none" stroke-width="2" stroke-linejoin="bevel" stroke-linecap="round" stroke="#000000" />
<path d="M240,320 L240,288 " fill="none" stroke-width="2" stroke-linejoin="bevel" stroke-linecap="round" stroke="#000000" />
<path d="M258,288 L222,288 " fill="none" stroke-width="2" stroke-linejoin="bevel" stroke-linecap="round" stroke="#000000" />
<path d="M448,272 L432,272 " fill="none" stroke-width="2" stroke-linejoin="bevel" stroke-linecap="round" stroke="#000000" />
<path d="M448,224 L448,320 " fill="none" stroke-width="2" stroke-linejoin="bevel" stroke-linecap="round" stroke="#000000" />
<path d="M496,224 L448,250 " fill="none" stroke-width="2" stroke-linejoin="bevel" stroke-linecap="round" stroke="#000000" />
<path d="M496,224 L496,208 " fill="none" stroke-width="2" stroke-linejoin="bevel" stroke-linecap="round" stroke="#000000" />
<path d="M496,320 L448,294 " fill="none" stroke-width="2" stroke-linejoin="bevel" stroke-linecap="round" stroke="#000000" />
<path d="M496,320 L496,336 " fill="none" stroke-width="2" stroke-linejoin="bevel" stroke-linecap="round" stroke="#000000" />
<path d="M468,313 C479,314 482,315 496,320 C485,310 482,308 476,299 C474,305 472,309 468,313 " fill="#000000" stroke="none" />
<path d="M16,160 L16,224 128,224 128,160 z" fill="none" stroke-width="2" stroke-linejoin="bevel" stroke-linecap="round" stroke="#000000" />
<path d="M16,352 L16,416 128,416 128,352 z" fill="none" stroke-width="2" stroke-linejoin="bevel" stroke-linecap="round" stroke="#000000" />
<path d="M608,144 L608,208 720,208 720,144 z" fill="none" stroke-width="2" stroke-linejoin="bevel" stroke-linecap="round" stroke="#000000" />
<path d="M276,264 C286,259 289,259 304,256 C289,253 286,253 276,248 C278,254 278,258 276,264 " fill="#000000" stroke="none" />
<g transform="matrix(   1    0   -0    1 128 288)" fill="#000000" >
<text stroke="none" font-family="Helvetica" font-size="40" ><tspan x="0" y="0">LED</tspan>
</text></g>
<ellipse cx="240" cy="208" rx="16" ry="16" fill="none" stroke-width="2" stroke-linejoin="bevel" stroke-linecap="round" stroke="#000000" />
<ellipse cx="240" cy="336" rx="16" ry="16" fill="none" stroke-width="2" stroke-linejoin="bevel" stroke-linecap="round" stroke="#000000" />
<path d="M128,384 C144,384 224,352 240,352 " fill="none" stroke-width="2" stroke-linejoin="bevel" stroke-linecap="round" stroke="#000000" />
<ellipse cx="496" cy="192" rx="16" ry="16" fill="none" stroke-width="2" stroke-linejoin="bevel" stroke-linecap="round" stroke="#000000" />
<ellipse cx="496" cy="352" rx="16" ry="16" fill="none" stroke-width="2" stroke-linejoin="bevel" stroke-linecap="round" stroke="#000000" />
<g transform="matrix(   1    0   -0    1 528 272)" fill="#000000" >
<text stroke="none" font-family="Helvetica" font-size="40" ><tspan x="0" y="0">Photo</tspan>
</text></g>
<g transform="matrix(   1    0   -0    1 528 304)" fill="#000000" >
<text stroke="none" font-family="Helvetica" font-size="40" ><tspan x="0" y="0">transistor</tspan>
</text></g>
<path d="M496,368 C512,368 256,464 128,384 " fill="none" stroke-width="2" stroke-linejoin="bevel" stroke-linecap="round" stroke="#000000" />
<path d="M276,296 C286,291 289,291 304,288 C289,285 286,285 276,280 C278,286 278,290 276,296 " fill="#000000" stroke="none" />
<path d="M276,280 C286,275 289,275 304,272 C289,269 286,269 276,264 C278,270 278,274 276,280 " fill="#000000" stroke="none" />
<path d="M0,432 L0,0 736,0 736,432 z" fill="none" stroke-width="2" stroke-linejoin="bevel" stroke-linecap="round" stroke="#000000" />
<g transform="matrix(   1    0   -0    1  48  96)" fill="#000000" >
<text stroke="none" font-family="Helvetica" font-size="40" ><tspan x="0" y="0">A1</tspan>
</text></g>
<g transform="matrix(   1    0   -0    1 624  80)" fill="#000000" >
<text stroke="none" font-family="Helvetica" font-size="40" ><tspan x="0" y="0">A2</tspan>
</text></g>
<path d="M608,32 L608,96 720,96 720,32 z" fill="none" stroke-width="2" stroke-linejoin="bevel" stroke-linecap="round" stroke="#000000" />
<path d="M16,48 L16,112 128,112 128,48 z" fill="none" stroke-width="2" stroke-linejoin="bevel" stroke-linecap="round" stroke="#000000" />
<path d="M512,192 C512,192 592,144 608,176 " fill="none" stroke-width="2" stroke-linejoin="bevel" stroke-linecap="round" stroke="#000000" />
<path d="M496,176 C497,176 496,80 608,64 " fill="none" stroke-width="2" stroke-linejoin="bevel" stroke-linecap="round" stroke="#000000" />
<path d="M128,192 C129,192 224,176 224,208 " fill="none" stroke-width="2" stroke-linejoin="bevel" stroke-linecap="round" stroke="#000000" />
<path d="M240,192 C241,192 224,96 128,80 " fill="none" stroke-width="2" stroke-linejoin="bevel" stroke-linecap="round" stroke="#000000" />
</g>
</svg>
